(Exported by FreeCAD)
(Post Processor: grbl_post)
(Output Time:2025-12-23 10:43:58.342223)
(Begin preamble)
G17 G90
G21
(Begin operation: 2mm-drill003)
(Path: 2mm-drill003)
(2mm-drill003)
(Begin toolchange)
( M6 T2 )
(Finish operation: 2mm-drill003)
(Begin operation: Fixture)
(Path: Fixture)
G54
(Finish operation: Fixture)
(Begin operation: Drilling)
(Path: Drilling)
(Drilling)
(Begin Drilling)
G90
G0 Z5.000
( G98 )
G0 X-3.950 Y11.750
G0 Z3.000
G73 X-3.950 Y11.750 Z-19.884 Q2.250 R3.000
G0 X-11.750 Y3.950
G73 X-11.750 Y3.950 Z-19.884 Q2.250 R3.000
G0 X-117.000 Y3.950
G73 X-117.000 Y3.950 Z-19.884 Q2.250 R3.000
G0 X-3.950 Y117.000
G73 X-3.950 Y117.000 Z-19.884 Q2.250 R3.000
( G80 )
G0 Z5.000
(Finish operation: Drilling)
(Begin postamble)
M5
G17 G90
M2
