(Exported by FreeCAD)
(Post Processor: grbl_post)
(Output Time:2025-12-23 10:44:03.224018)
(Begin preamble)
G17 G90
G21
(Begin operation: 2mm-endmill001)
(Path: 2mm-endmill001)
(2mm-endmill001)
(Begin toolchange)
( M6 T3 )
(Finish operation: 2mm-endmill001)
(Begin operation: Fixture)
(Path: Fixture)
G54
(Finish operation: Fixture)
(Begin operation: Helix001)
(Path: Helix001)
(Helix001)
(helix cut operation)
G0 Z5.000
G0 Z5.000
G0 X-3.950 Y11.750 Z5.000
G0 X-3.950 Y11.750 Z0.000
G0 X-3.100 Y11.750
G1 Z0.000
G3 X-4.800 Y11.750 Z-0.214 I-0.850 J0.000
G3 X-3.100 Y11.750 Z-0.429 I0.850 J0.000
G3 X-4.800 Y11.750 Z-0.643 I-0.850 J0.000
G3 X-3.100 Y11.750 Z-0.857 I0.850 J0.000
G3 X-4.800 Y11.750 Z-1.071 I-0.850 J0.000
G3 X-3.100 Y11.750 Z-1.286 I0.850 J0.000
G3 X-4.800 Y11.750 Z-1.500 I-0.850 J0.000
G3 X-3.100 Y11.750 Z-1.714 I0.850 J0.000
G3 X-4.800 Y11.750 Z-1.929 I-0.850 J0.000
G3 X-3.100 Y11.750 Z-2.143 I0.850 J0.000
G3 X-4.800 Y11.750 Z-2.357 I-0.850 J0.000
G3 X-3.100 Y11.750 Z-2.571 I0.850 J0.000
G3 X-4.800 Y11.750 Z-2.786 I-0.850 J0.000
G3 X-3.100 Y11.750 Z-3.000 I0.850 J0.000
G3 X-4.800 Y11.750 Z-3.000 I-0.850 J0.000
G3 X-3.100 Y11.750 Z-3.000 I0.850 J0.000
G0 X-3.950 Y11.750 Z-3.000
G0 Z0.000
G0 Z5.000
G0 X-11.750 Y3.950 Z5.000
G0 X-11.750 Y3.950 Z0.000
G0 X-10.900 Y3.950
G1 Z0.000
G3 X-12.600 Y3.950 Z-0.214 I-0.850 J0.000
G3 X-10.900 Y3.950 Z-0.429 I0.850 J0.000
G3 X-12.600 Y3.950 Z-0.643 I-0.850 J0.000
G3 X-10.900 Y3.950 Z-0.857 I0.850 J0.000
G3 X-12.600 Y3.950 Z-1.071 I-0.850 J0.000
G3 X-10.900 Y3.950 Z-1.286 I0.850 J0.000
G3 X-12.600 Y3.950 Z-1.500 I-0.850 J0.000
G3 X-10.900 Y3.950 Z-1.714 I0.850 J0.000
G3 X-12.600 Y3.950 Z-1.929 I-0.850 J0.000
G3 X-10.900 Y3.950 Z-2.143 I0.850 J0.000
G3 X-12.600 Y3.950 Z-2.357 I-0.850 J0.000
G3 X-10.900 Y3.950 Z-2.571 I0.850 J0.000
G3 X-12.600 Y3.950 Z-2.786 I-0.850 J0.000
G3 X-10.900 Y3.950 Z-3.000 I0.850 J0.000
G3 X-12.600 Y3.950 Z-3.000 I-0.850 J0.000
G3 X-10.900 Y3.950 Z-3.000 I0.850 J0.000
G0 X-11.750 Y3.950 Z-3.000
G0 Z0.000
G0 Z5.000
G0 X-117.000 Y3.950 Z5.000
G0 X-117.000 Y3.950 Z0.000
G0 X-116.150 Y3.950
G1 Z0.000
G3 X-117.850 Y3.950 Z-0.214 I-0.850 J0.000
G3 X-116.150 Y3.950 Z-0.429 I0.850 J0.000
G3 X-117.850 Y3.950 Z-0.643 I-0.850 J0.000
G3 X-116.150 Y3.950 Z-0.857 I0.850 J0.000
G3 X-117.850 Y3.950 Z-1.071 I-0.850 J0.000
G3 X-116.150 Y3.950 Z-1.286 I0.850 J0.000
G3 X-117.850 Y3.950 Z-1.500 I-0.850 J0.000
G3 X-116.150 Y3.950 Z-1.714 I0.850 J0.000
G3 X-117.850 Y3.950 Z-1.929 I-0.850 J0.000
G3 X-116.150 Y3.950 Z-2.143 I0.850 J0.000
G3 X-117.850 Y3.950 Z-2.357 I-0.850 J0.000
G3 X-116.150 Y3.950 Z-2.571 I0.850 J0.000
G3 X-117.850 Y3.950 Z-2.786 I-0.850 J0.000
G3 X-116.150 Y3.950 Z-3.000 I0.850 J0.000
G3 X-117.850 Y3.950 Z-3.000 I-0.850 J0.000
G3 X-116.150 Y3.950 Z-3.000 I0.850 J0.000
G0 X-117.000 Y3.950 Z-3.000
G0 Z0.000
G0 Z5.000
G0 X-3.950 Y117.000 Z5.000
G0 X-3.950 Y117.000 Z0.000
G0 X-3.100 Y117.000
G1 Z0.000
G3 X-4.800 Y117.000 Z-0.214 I-0.850 J0.000
G3 X-3.100 Y117.000 Z-0.429 I0.850 J0.000
G3 X-4.800 Y117.000 Z-0.643 I-0.850 J0.000
G3 X-3.100 Y117.000 Z-0.857 I0.850 J0.000
G3 X-4.800 Y117.000 Z-1.071 I-0.850 J0.000
G3 X-3.100 Y117.000 Z-1.286 I0.850 J0.000
G3 X-4.800 Y117.000 Z-1.500 I-0.850 J0.000
G3 X-3.100 Y117.000 Z-1.714 I0.850 J0.000
G3 X-4.800 Y117.000 Z-1.929 I-0.850 J0.000
G3 X-3.100 Y117.000 Z-2.143 I0.850 J0.000
G3 X-4.800 Y117.000 Z-2.357 I-0.850 J0.000
G3 X-3.100 Y117.000 Z-2.571 I0.850 J0.000
G3 X-4.800 Y117.000 Z-2.786 I-0.850 J0.000
G3 X-3.100 Y117.000 Z-3.000 I0.850 J0.000
G3 X-4.800 Y117.000 Z-3.000 I-0.850 J0.000
G3 X-3.100 Y117.000 Z-3.000 I0.850 J0.000
G0 X-3.950 Y117.000 Z-3.000
G0 Z0.000
G0 Z5.000
(Finish operation: Helix001)
(Begin postamble)
M5
G17 G90
M2
