(Exported by FreeCAD)
(Post Processor: grbl_post)
(Output Time:2025-12-23 11:05:03.745740)
(Begin preamble)
G17 G90
G21
(Begin operation: 2mm-drill003)
(Path: 2mm-drill003)
(2mm-drill003)
(Begin toolchange)
( M6 T2 )
(Finish operation: 2mm-drill003)
(Begin operation: Fixture)
(Path: Fixture)
G54
(Finish operation: Fixture)
(Begin operation: Drilling)
(Path: Drilling)
(Drilling)
(Begin Drilling)
G90
G0 Z5.000
( G98 )
G0 X-3.950 Y11.750
G0 Z3.000
(G83 X-3.950 Y11.750 Z-19.884 Q2.250 R3.000)
G0 X-3.950 Y11.750
G1 Z0.750 F0.00
G0 Z3.000
G0 Z0.863
G1 Z-1.500 F0.00
G0 Z3.000
G0 Z-1.387
G1 Z-3.750 F0.00
G0 Z3.000
G0 Z-3.638
G1 Z-6.000 F0.00
G0 Z3.000
G0 Z-5.888
G1 Z-8.250 F0.00
G0 Z3.000
G0 Z-8.137
G1 Z-10.500 F0.00
G0 Z3.000
G0 Z-10.387
G1 Z-12.750 F0.00
G0 Z3.000
G0 Z-12.637
G1 Z-15.000 F0.00
G0 Z3.000
G0 Z-14.887
G1 Z-17.250 F0.00
G0 Z3.000
G0 Z-17.137
G1 Z-19.500 F0.00
G0 Z3.000
G0 Z-19.387
G1 Z-19.884 F0.00
G0 Z3.000
G0 X-11.750 Y3.950
(G83 X-11.750 Y3.950 Z-19.884 Q2.250 R3.000)
G0 X-11.750 Y3.950
G1 Z0.750 F0.00
G0 Z3.000
G0 Z0.863
G1 Z-1.500 F0.00
G0 Z3.000
G0 Z-1.387
G1 Z-3.750 F0.00
G0 Z3.000
G0 Z-3.638
G1 Z-6.000 F0.00
G0 Z3.000
G0 Z-5.888
G1 Z-8.250 F0.00
G0 Z3.000
G0 Z-8.137
G1 Z-10.500 F0.00
G0 Z3.000
G0 Z-10.387
G1 Z-12.750 F0.00
G0 Z3.000
G0 Z-12.637
G1 Z-15.000 F0.00
G0 Z3.000
G0 Z-14.887
G1 Z-17.250 F0.00
G0 Z3.000
G0 Z-17.137
G1 Z-19.500 F0.00
G0 Z3.000
G0 Z-19.387
G1 Z-19.884 F0.00
G0 Z3.000
G0 X-117.000 Y3.950
(G83 X-117.000 Y3.950 Z-19.884 Q2.250 R3.000)
G0 X-117.000 Y3.950
G1 Z0.750 F0.00
G0 Z3.000
G0 Z0.863
G1 Z-1.500 F0.00
G0 Z3.000
G0 Z-1.387
G1 Z-3.750 F0.00
G0 Z3.000
G0 Z-3.638
G1 Z-6.000 F0.00
G0 Z3.000
G0 Z-5.888
G1 Z-8.250 F0.00
G0 Z3.000
G0 Z-8.137
G1 Z-10.500 F0.00
G0 Z3.000
G0 Z-10.387
G1 Z-12.750 F0.00
G0 Z3.000
G0 Z-12.637
G1 Z-15.000 F0.00
G0 Z3.000
G0 Z-14.887
G1 Z-17.250 F0.00
G0 Z3.000
G0 Z-17.137
G1 Z-19.500 F0.00
G0 Z3.000
G0 Z-19.387
G1 Z-19.884 F0.00
G0 Z3.000
G0 X-3.950 Y117.000
(G83 X-3.950 Y117.000 Z-19.884 Q2.250 R3.000)
G0 X-3.950 Y117.000
G1 Z0.750 F0.00
G0 Z3.000
G0 Z0.863
G1 Z-1.500 F0.00
G0 Z3.000
G0 Z-1.387
G1 Z-3.750 F0.00
G0 Z3.000
G0 Z-3.638
G1 Z-6.000 F0.00
G0 Z3.000
G0 Z-5.888
G1 Z-8.250 F0.00
G0 Z3.000
G0 Z-8.137
G1 Z-10.500 F0.00
G0 Z3.000
G0 Z-10.387
G1 Z-12.750 F0.00
G0 Z3.000
G0 Z-12.637
G1 Z-15.000 F0.00
G0 Z3.000
G0 Z-14.887
G1 Z-17.250 F0.00
G0 Z3.000
G0 Z-17.137
G1 Z-19.500 F0.00
G0 Z3.000
G0 Z-19.387
G1 Z-19.884 F0.00
G0 Z3.000
( G80 )
G0 Z5.000
(Finish operation: Drilling)
(Begin postamble)
M5
G17 G90
M2
