(Exported by FreeCAD)
(Post Processor: grbl_post)
(Output Time:2025-12-26 17:27:40.448602)
(Begin preamble)
G17 G90
G21
(Begin operation: 1.0mm End Mill-PN001)
(Path: 1.0mm End Mill-PN001)
(1.0mm End Mill-PN001)
(Begin toolchange)
( M6 T2 )
(Finish operation: 1.0mm End Mill-PN001)
(Begin operation: Fixture)
(Path: Fixture)
G54
(Finish operation: Fixture)
(Begin operation: Counterbore001)
(Path: Counterbore001)
(Counterbore001)
(helix cut operation)
G0 Z3.000
G0 Z3.000
G0 X0.000 Y0.000 Z3.000
G0 X0.000 Y0.000 Z1.000
G0 X0.500 Y0.000
G1 Z1.000 F300.000
G3 X-0.500 Y0.000 Z0.750 I-0.500 J0.000 F300.000
G3 X0.500 Y0.000 Z0.500 I0.500 J0.000 F300.000
G3 X-0.500 Y0.000 Z0.250 I-0.500 J0.000 F300.000
G3 X0.500 Y0.000 Z0.000 I0.500 J0.000 F300.000
G3 X-0.500 Y0.000 Z-0.250 I-0.500 J0.000 F300.000
G3 X0.500 Y0.000 Z-0.500 I0.500 J0.000 F300.000
G3 X-0.500 Y0.000 Z-0.750 I-0.500 J0.000 F300.000
G3 X0.500 Y0.000 Z-1.000 I0.500 J0.000 F300.000
G3 X-0.500 Y0.000 Z-1.250 I-0.500 J0.000 F300.000
G3 X0.500 Y0.000 Z-1.500 I0.500 J0.000 F300.000
G3 X-0.500 Y0.000 Z-1.750 I-0.500 J0.000 F300.000
G3 X0.500 Y0.000 Z-2.000 I0.500 J0.000 F300.000
G3 X-0.500 Y0.000 Z-2.000 I-0.500 J0.000 F300.000
G3 X0.500 Y0.000 Z-2.000 I0.500 J0.000 F300.000
G0 X0.000 Y0.000 Z-2.000
G0 Z1.000
G0 X0.925 Y0.000
G1 Z1.000 F300.000
G3 X-0.925 Y0.000 Z0.750 I-0.925 J0.000 F300.000
G3 X0.925 Y0.000 Z0.500 I0.925 J0.000 F300.000
G3 X-0.925 Y0.000 Z0.250 I-0.925 J0.000 F300.000
G3 X0.925 Y0.000 Z0.000 I0.925 J0.000 F300.000
G3 X-0.925 Y0.000 Z-0.250 I-0.925 J0.000 F300.000
G3 X0.925 Y0.000 Z-0.500 I0.925 J0.000 F300.000
G3 X-0.925 Y0.000 Z-0.750 I-0.925 J0.000 F300.000
G3 X0.925 Y0.000 Z-1.000 I0.925 J0.000 F300.000
G3 X-0.925 Y0.000 Z-1.250 I-0.925 J0.000 F300.000
G3 X0.925 Y0.000 Z-1.500 I0.925 J0.000 F300.000
G3 X-0.925 Y0.000 Z-1.750 I-0.925 J0.000 F300.000
G3 X0.925 Y0.000 Z-2.000 I0.925 J0.000 F300.000
G3 X-0.925 Y0.000 Z-2.000 I-0.925 J0.000 F300.000
G3 X0.925 Y0.000 Z-2.000 I0.925 J0.000 F300.000
G0 X0.000 Y0.000 Z-2.000
G0 Z1.000
G0 X1.350 Y0.000
G1 Z1.000 F300.000
G3 X-1.350 Y0.000 Z0.750 I-1.350 J0.000 F300.000
G3 X1.350 Y0.000 Z0.500 I1.350 J0.000 F300.000
G3 X-1.350 Y0.000 Z0.250 I-1.350 J0.000 F300.000
G3 X1.350 Y0.000 Z0.000 I1.350 J0.000 F300.000
G3 X-1.350 Y0.000 Z-0.250 I-1.350 J0.000 F300.000
G3 X1.350 Y0.000 Z-0.500 I1.350 J0.000 F300.000
G3 X-1.350 Y0.000 Z-0.750 I-1.350 J0.000 F300.000
G3 X1.350 Y0.000 Z-1.000 I1.350 J0.000 F300.000
G3 X-1.350 Y0.000 Z-1.250 I-1.350 J0.000 F300.000
G3 X1.350 Y0.000 Z-1.500 I1.350 J0.000 F300.000
G3 X-1.350 Y0.000 Z-1.750 I-1.350 J0.000 F300.000
G3 X1.350 Y0.000 Z-2.000 I1.350 J0.000 F300.000
G3 X-1.350 Y0.000 Z-2.000 I-1.350 J0.000 F300.000
G3 X1.350 Y0.000 Z-2.000 I1.350 J0.000 F300.000
G0 X0.000 Y0.000 Z-2.000
G0 Z1.000
G0 Z3.000
G0 X0 Y0
(Finish operation: Counterbore001)
(Begin postamble)
M5
G17 G90
M2
