(Exported by FreeCAD)
(Post Processor: grbl_post)
(Output Time:2025-12-27 10:26:21.756309)
(Begin preamble)
G17 G90
G21
(Begin operation: 2.1mm Drill001)
(Path: 2.1mm Drill001)
(2.1mm Drill001)
(Begin toolchange)
( M6 T3 )
(Finish operation: 2.1mm Drill001)
(Begin operation: Fixture)
(Path: Fixture)
G54
(Finish operation: Fixture)
(Begin operation: Drilling002)
(Path: Drilling002)
(Drilling002)
(Begin Drilling)
G90
G0 Z5.000
( G98 )
G0 X3.950 Y11.750
G0 Z3.000
(G83 X3.950 Y11.750 Z-15.618 F500.000 Q1.575 R3.000)
G0 X3.950 Y11.750
G1 Z1.425 F500.00
G0 Z3.000
G0 Z1.504
G1 Z-0.150 F500.00
G0 Z3.000
G0 Z-0.071
G1 Z-1.725 F500.00
G0 Z3.000
G0 Z-1.646
G1 Z-3.300 F500.00
G0 Z3.000
G0 Z-3.221
G1 Z-4.875 F500.00
G0 Z3.000
G0 Z-4.796
G1 Z-6.450 F500.00
G0 Z3.000
G0 Z-6.371
G1 Z-8.025 F500.00
G0 Z3.000
G0 Z-7.946
G1 Z-9.600 F500.00
G0 Z3.000
G0 Z-9.521
G1 Z-11.175 F500.00
G0 Z3.000
G0 Z-11.096
G1 Z-12.750 F500.00
G0 Z3.000
G0 Z-12.671
G1 Z-14.325 F500.00
G0 Z3.000
G0 Z-14.246
G1 Z-15.618 F500.00
G0 Z3.000
G0 X11.750 Y3.950
(G83 X11.750 Y3.950 Z-15.618 F500.000 Q1.575 R3.000)
G0 X11.750 Y3.950
G1 Z1.425 F500.00
G0 Z3.000
G0 Z1.504
G1 Z-0.150 F500.00
G0 Z3.000
G0 Z-0.071
G1 Z-1.725 F500.00
G0 Z3.000
G0 Z-1.646
G1 Z-3.300 F500.00
G0 Z3.000
G0 Z-3.221
G1 Z-4.875 F500.00
G0 Z3.000
G0 Z-4.796
G1 Z-6.450 F500.00
G0 Z3.000
G0 Z-6.371
G1 Z-8.025 F500.00
G0 Z3.000
G0 Z-7.946
G1 Z-9.600 F500.00
G0 Z3.000
G0 Z-9.521
G1 Z-11.175 F500.00
G0 Z3.000
G0 Z-11.096
G1 Z-12.750 F500.00
G0 Z3.000
G0 Z-12.671
G1 Z-14.325 F500.00
G0 Z3.000
G0 Z-14.246
G1 Z-15.618 F500.00
G0 Z3.000
G0 X117.000 Y3.950
(G83 X117.000 Y3.950 Z-15.618 F500.000 Q1.575 R3.000)
G0 X117.000 Y3.950
G1 Z1.425 F500.00
G0 Z3.000
G0 Z1.504
G1 Z-0.150 F500.00
G0 Z3.000
G0 Z-0.071
G1 Z-1.725 F500.00
G0 Z3.000
G0 Z-1.646
G1 Z-3.300 F500.00
G0 Z3.000
G0 Z-3.221
G1 Z-4.875 F500.00
G0 Z3.000
G0 Z-4.796
G1 Z-6.450 F500.00
G0 Z3.000
G0 Z-6.371
G1 Z-8.025 F500.00
G0 Z3.000
G0 Z-7.946
G1 Z-9.600 F500.00
G0 Z3.000
G0 Z-9.521
G1 Z-11.175 F500.00
G0 Z3.000
G0 Z-11.096
G1 Z-12.750 F500.00
G0 Z3.000
G0 Z-12.671
G1 Z-14.325 F500.00
G0 Z3.000
G0 Z-14.246
G1 Z-15.618 F500.00
G0 Z3.000
G0 X3.950 Y117.000
(G83 X3.950 Y117.000 Z-15.618 F500.000 Q1.575 R3.000)
G0 X3.950 Y117.000
G1 Z1.425 F500.00
G0 Z3.000
G0 Z1.504
G1 Z-0.150 F500.00
G0 Z3.000
G0 Z-0.071
G1 Z-1.725 F500.00
G0 Z3.000
G0 Z-1.646
G1 Z-3.300 F500.00
G0 Z3.000
G0 Z-3.221
G1 Z-4.875 F500.00
G0 Z3.000
G0 Z-4.796
G1 Z-6.450 F500.00
G0 Z3.000
G0 Z-6.371
G1 Z-8.025 F500.00
G0 Z3.000
G0 Z-7.946
G1 Z-9.600 F500.00
G0 Z3.000
G0 Z-9.521
G1 Z-11.175 F500.00
G0 Z3.000
G0 Z-11.096
G1 Z-12.750 F500.00
G0 Z3.000
G0 Z-12.671
G1 Z-14.325 F500.00
G0 Z3.000
G0 Z-14.246
G1 Z-15.618 F500.00
G0 Z3.000
( G80 )
G0 Z5.000
(Finish operation: Drilling002)
G0 X0 Y0
(Begin postamble)
M5
G17 G90
M2
