(Exported by FreeCAD)
(Post Processor: grbl_post)
(Output Time:2025-12-24 13:02:36.618456)
(Begin preamble)
G17 G90
G21
(Begin operation: 2mm-drill003)
(Path: 2mm-drill003)
(2mm-drill003)
(Begin toolchange)
( M6 T2 )
(Finish operation: 2mm-drill003)
(Begin operation: Fixture)
(Path: Fixture)
G54
(Finish operation: Fixture)
(Begin operation: Drilling-2mm-drill)
(Path: Drilling-2mm-drill)
(Drilling-2mm-drill)
(Begin Drilling)
G90
G0 Z5.000
( G98 )
G0 X4.950 Y12.750
G0 Z3.000
(G83 X4.950 Y12.750 Z-15.884 Q2.250 R3.000)
G0 X4.950 Y12.750
G1 Z0.750 F0.00
G0 Z3.000
G0 Z0.863
G1 Z-1.500 F0.00
G0 Z3.000
G0 Z-1.387
G1 Z-3.750 F0.00
G0 Z3.000
G0 Z-3.638
G1 Z-6.000 F0.00
G0 Z3.000
G0 Z-5.888
G1 Z-8.250 F0.00
G0 Z3.000
G0 Z-8.137
G1 Z-10.500 F0.00
G0 Z3.000
G0 Z-10.387
G1 Z-12.750 F0.00
G0 Z3.000
G0 Z-12.637
G1 Z-15.000 F0.00
G0 Z3.000
G0 Z-14.887
G1 Z-15.884 F0.00
G0 Z3.000
G0 X12.750 Y4.950
(G83 X12.750 Y4.950 Z-15.884 Q2.250 R3.000)
G0 X12.750 Y4.950
G1 Z0.750 F0.00
G0 Z3.000
G0 Z0.863
G1 Z-1.500 F0.00
G0 Z3.000
G0 Z-1.387
G1 Z-3.750 F0.00
G0 Z3.000
G0 Z-3.638
G1 Z-6.000 F0.00
G0 Z3.000
G0 Z-5.888
G1 Z-8.250 F0.00
G0 Z3.000
G0 Z-8.137
G1 Z-10.500 F0.00
G0 Z3.000
G0 Z-10.387
G1 Z-12.750 F0.00
G0 Z3.000
G0 Z-12.637
G1 Z-15.000 F0.00
G0 Z3.000
G0 Z-14.887
G1 Z-15.884 F0.00
G0 Z3.000
G0 X118.000 Y4.950
(G83 X118.000 Y4.950 Z-15.884 Q2.250 R3.000)
G0 X118.000 Y4.950
G1 Z0.750 F0.00
G0 Z3.000
G0 Z0.863
G1 Z-1.500 F0.00
G0 Z3.000
G0 Z-1.387
G1 Z-3.750 F0.00
G0 Z3.000
G0 Z-3.638
G1 Z-6.000 F0.00
G0 Z3.000
G0 Z-5.888
G1 Z-8.250 F0.00
G0 Z3.000
G0 Z-8.137
G1 Z-10.500 F0.00
G0 Z3.000
G0 Z-10.387
G1 Z-12.750 F0.00
G0 Z3.000
G0 Z-12.637
G1 Z-15.000 F0.00
G0 Z3.000
G0 Z-14.887
G1 Z-15.884 F0.00
G0 Z3.000
G0 X4.950 Y118.000
(G83 X4.950 Y118.000 Z-15.884 Q2.250 R3.000)
G0 X4.950 Y118.000
G1 Z0.750 F0.00
G0 Z3.000
G0 Z0.863
G1 Z-1.500 F0.00
G0 Z3.000
G0 Z-1.387
G1 Z-3.750 F0.00
G0 Z3.000
G0 Z-3.638
G1 Z-6.000 F0.00
G0 Z3.000
G0 Z-5.888
G1 Z-8.250 F0.00
G0 Z3.000
G0 Z-8.137
G1 Z-10.500 F0.00
G0 Z3.000
G0 Z-10.387
G1 Z-12.750 F0.00
G0 Z3.000
G0 Z-12.637
G1 Z-15.000 F0.00
G0 Z3.000
G0 Z-14.887
G1 Z-15.884 F0.00
G0 Z3.000
( G80 )
G0 Z5.000
(Finish operation: Drilling-2mm-drill)
(Begin postamble)
M5
G17 G90
M2
