(Exported by FreeCAD)
(Post Processor: grbl_post)
(Output Time:2025-12-24 13:02:40.365615)
(Begin preamble)
G17 G90
G21
(Begin operation: 1.0mm End Mill-PN 57-002)
(Path: 1.0mm End Mill-PN 57-002)
(1.0mm End Mill-PN 57-002)
(Begin toolchange)
( M6 T4 )
(Finish operation: 1.0mm End Mill-PN 57-002)
(Begin operation: Fixture)
(Path: Fixture)
G54
(Finish operation: Fixture)
(Begin operation: Counterbore-1mm-endmill)
(Path: Counterbore-1mm-endmill)
(Counterbore-1mm-endmill)
(helix cut operation)
G0 Z5.000
G0 Z5.000
G0 X4.950 Y12.750 Z5.000
G0 X4.950 Y12.750 Z0.000
G0 X5.450 Y12.750
G1 Z0.000 F1000.000
G3 X4.450 Y12.750 Z-0.200 I-0.500 J0.000 F200.000
G3 X5.450 Y12.750 Z-0.400 I0.500 J0.000 F200.000
G3 X4.450 Y12.750 Z-0.600 I-0.500 J0.000 F200.000
G3 X5.450 Y12.750 Z-0.800 I0.500 J0.000 F200.000
G3 X4.450 Y12.750 Z-1.000 I-0.500 J0.000 F200.000
G3 X5.450 Y12.750 Z-1.200 I0.500 J0.000 F200.000
G3 X4.450 Y12.750 Z-1.400 I-0.500 J0.000 F200.000
G3 X5.450 Y12.750 Z-1.600 I0.500 J0.000 F200.000
G3 X4.450 Y12.750 Z-1.800 I-0.500 J0.000 F200.000
G3 X5.450 Y12.750 Z-2.000 I0.500 J0.000 F200.000
G3 X4.450 Y12.750 Z-2.000 I-0.500 J0.000 F200.000
G3 X5.450 Y12.750 Z-2.000 I0.500 J0.000 F200.000
G0 X4.950 Y12.750 Z-2.000
G0 Z0.000
G0 X5.875 Y12.750
G1 Z0.000 F1000.000
G3 X4.025 Y12.750 Z-0.200 I-0.925 J0.000 F200.000
G3 X5.875 Y12.750 Z-0.400 I0.925 J0.000 F200.000
G3 X4.025 Y12.750 Z-0.600 I-0.925 J0.000 F200.000
G3 X5.875 Y12.750 Z-0.800 I0.925 J0.000 F200.000
G3 X4.025 Y12.750 Z-1.000 I-0.925 J0.000 F200.000
G3 X5.875 Y12.750 Z-1.200 I0.925 J0.000 F200.000
G3 X4.025 Y12.750 Z-1.400 I-0.925 J0.000 F200.000
G3 X5.875 Y12.750 Z-1.600 I0.925 J0.000 F200.000
G3 X4.025 Y12.750 Z-1.800 I-0.925 J0.000 F200.000
G3 X5.875 Y12.750 Z-2.000 I0.925 J0.000 F200.000
G3 X4.025 Y12.750 Z-2.000 I-0.925 J0.000 F200.000
G3 X5.875 Y12.750 Z-2.000 I0.925 J0.000 F200.000
G0 X4.950 Y12.750 Z-2.000
G0 Z0.000
G0 X6.300 Y12.750
G1 Z0.000 F1000.000
G3 X3.600 Y12.750 Z-0.200 I-1.350 J0.000 F200.000
G3 X6.300 Y12.750 Z-0.400 I1.350 J0.000 F200.000
G3 X3.600 Y12.750 Z-0.600 I-1.350 J0.000 F200.000
G3 X6.300 Y12.750 Z-0.800 I1.350 J0.000 F200.000
G3 X3.600 Y12.750 Z-1.000 I-1.350 J0.000 F200.000
G3 X6.300 Y12.750 Z-1.200 I1.350 J0.000 F200.000
G3 X3.600 Y12.750 Z-1.400 I-1.350 J0.000 F200.000
G3 X6.300 Y12.750 Z-1.600 I1.350 J0.000 F200.000
G3 X3.600 Y12.750 Z-1.800 I-1.350 J0.000 F200.000
G3 X6.300 Y12.750 Z-2.000 I1.350 J0.000 F200.000
G3 X3.600 Y12.750 Z-2.000 I-1.350 J0.000 F200.000
G3 X6.300 Y12.750 Z-2.000 I1.350 J0.000 F200.000
G0 X4.950 Y12.750 Z-2.000
G0 Z0.000
G0 Z5.000
G0 X12.750 Y4.950 Z5.000
G0 X12.750 Y4.950 Z0.000
G0 X13.250 Y4.950
G1 Z0.000 F1000.000
G3 X12.250 Y4.950 Z-0.200 I-0.500 J0.000 F200.000
G3 X13.250 Y4.950 Z-0.400 I0.500 J0.000 F200.000
G3 X12.250 Y4.950 Z-0.600 I-0.500 J0.000 F200.000
G3 X13.250 Y4.950 Z-0.800 I0.500 J0.000 F200.000
G3 X12.250 Y4.950 Z-1.000 I-0.500 J0.000 F200.000
G3 X13.250 Y4.950 Z-1.200 I0.500 J0.000 F200.000
G3 X12.250 Y4.950 Z-1.400 I-0.500 J0.000 F200.000
G3 X13.250 Y4.950 Z-1.600 I0.500 J0.000 F200.000
G3 X12.250 Y4.950 Z-1.800 I-0.500 J0.000 F200.000
G3 X13.250 Y4.950 Z-2.000 I0.500 J0.000 F200.000
G3 X12.250 Y4.950 Z-2.000 I-0.500 J0.000 F200.000
G3 X13.250 Y4.950 Z-2.000 I0.500 J0.000 F200.000
G0 X12.750 Y4.950 Z-2.000
G0 Z0.000
G0 X13.675 Y4.950
G1 Z0.000 F1000.000
G3 X11.825 Y4.950 Z-0.200 I-0.925 J0.000 F200.000
G3 X13.675 Y4.950 Z-0.400 I0.925 J0.000 F200.000
G3 X11.825 Y4.950 Z-0.600 I-0.925 J0.000 F200.000
G3 X13.675 Y4.950 Z-0.800 I0.925 J0.000 F200.000
G3 X11.825 Y4.950 Z-1.000 I-0.925 J0.000 F200.000
G3 X13.675 Y4.950 Z-1.200 I0.925 J0.000 F200.000
G3 X11.825 Y4.950 Z-1.400 I-0.925 J0.000 F200.000
G3 X13.675 Y4.950 Z-1.600 I0.925 J0.000 F200.000
G3 X11.825 Y4.950 Z-1.800 I-0.925 J0.000 F200.000
G3 X13.675 Y4.950 Z-2.000 I0.925 J0.000 F200.000
G3 X11.825 Y4.950 Z-2.000 I-0.925 J0.000 F200.000
G3 X13.675 Y4.950 Z-2.000 I0.925 J0.000 F200.000
G0 X12.750 Y4.950 Z-2.000
G0 Z0.000
G0 X14.100 Y4.950
G1 Z0.000 F1000.000
G3 X11.400 Y4.950 Z-0.200 I-1.350 J0.000 F200.000
G3 X14.100 Y4.950 Z-0.400 I1.350 J0.000 F200.000
G3 X11.400 Y4.950 Z-0.600 I-1.350 J0.000 F200.000
G3 X14.100 Y4.950 Z-0.800 I1.350 J0.000 F200.000
G3 X11.400 Y4.950 Z-1.000 I-1.350 J0.000 F200.000
G3 X14.100 Y4.950 Z-1.200 I1.350 J0.000 F200.000
G3 X11.400 Y4.950 Z-1.400 I-1.350 J0.000 F200.000
G3 X14.100 Y4.950 Z-1.600 I1.350 J0.000 F200.000
G3 X11.400 Y4.950 Z-1.800 I-1.350 J0.000 F200.000
G3 X14.100 Y4.950 Z-2.000 I1.350 J0.000 F200.000
G3 X11.400 Y4.950 Z-2.000 I-1.350 J0.000 F200.000
G3 X14.100 Y4.950 Z-2.000 I1.350 J0.000 F200.000
G0 X12.750 Y4.950 Z-2.000
G0 Z0.000
G0 Z5.000
G0 X118.000 Y4.950 Z5.000
G0 X118.000 Y4.950 Z0.000
G0 X118.500 Y4.950
G1 Z0.000 F1000.000
G3 X117.500 Y4.950 Z-0.200 I-0.500 J0.000 F200.000
G3 X118.500 Y4.950 Z-0.400 I0.500 J0.000 F200.000
G3 X117.500 Y4.950 Z-0.600 I-0.500 J0.000 F200.000
G3 X118.500 Y4.950 Z-0.800 I0.500 J0.000 F200.000
G3 X117.500 Y4.950 Z-1.000 I-0.500 J0.000 F200.000
G3 X118.500 Y4.950 Z-1.200 I0.500 J0.000 F200.000
G3 X117.500 Y4.950 Z-1.400 I-0.500 J0.000 F200.000
G3 X118.500 Y4.950 Z-1.600 I0.500 J0.000 F200.000
G3 X117.500 Y4.950 Z-1.800 I-0.500 J0.000 F200.000
G3 X118.500 Y4.950 Z-2.000 I0.500 J0.000 F200.000
G3 X117.500 Y4.950 Z-2.000 I-0.500 J0.000 F200.000
G3 X118.500 Y4.950 Z-2.000 I0.500 J0.000 F200.000
G0 X118.000 Y4.950 Z-2.000
G0 Z0.000
G0 X118.925 Y4.950
G1 Z0.000 F1000.000
G3 X117.075 Y4.950 Z-0.200 I-0.925 J0.000 F200.000
G3 X118.925 Y4.950 Z-0.400 I0.925 J0.000 F200.000
G3 X117.075 Y4.950 Z-0.600 I-0.925 J0.000 F200.000
G3 X118.925 Y4.950 Z-0.800 I0.925 J0.000 F200.000
G3 X117.075 Y4.950 Z-1.000 I-0.925 J0.000 F200.000
G3 X118.925 Y4.950 Z-1.200 I0.925 J0.000 F200.000
G3 X117.075 Y4.950 Z-1.400 I-0.925 J0.000 F200.000
G3 X118.925 Y4.950 Z-1.600 I0.925 J0.000 F200.000
G3 X117.075 Y4.950 Z-1.800 I-0.925 J0.000 F200.000
G3 X118.925 Y4.950 Z-2.000 I0.925 J0.000 F200.000
G3 X117.075 Y4.950 Z-2.000 I-0.925 J0.000 F200.000
G3 X118.925 Y4.950 Z-2.000 I0.925 J0.000 F200.000
G0 X118.000 Y4.950 Z-2.000
G0 Z0.000
G0 X119.350 Y4.950
G1 Z0.000 F1000.000
G3 X116.650 Y4.950 Z-0.200 I-1.350 J0.000 F200.000
G3 X119.350 Y4.950 Z-0.400 I1.350 J0.000 F200.000
G3 X116.650 Y4.950 Z-0.600 I-1.350 J0.000 F200.000
G3 X119.350 Y4.950 Z-0.800 I1.350 J0.000 F200.000
G3 X116.650 Y4.950 Z-1.000 I-1.350 J0.000 F200.000
G3 X119.350 Y4.950 Z-1.200 I1.350 J0.000 F200.000
G3 X116.650 Y4.950 Z-1.400 I-1.350 J0.000 F200.000
G3 X119.350 Y4.950 Z-1.600 I1.350 J0.000 F200.000
G3 X116.650 Y4.950 Z-1.800 I-1.350 J0.000 F200.000
G3 X119.350 Y4.950 Z-2.000 I1.350 J0.000 F200.000
G3 X116.650 Y4.950 Z-2.000 I-1.350 J0.000 F200.000
G3 X119.350 Y4.950 Z-2.000 I1.350 J0.000 F200.000
G0 X118.000 Y4.950 Z-2.000
G0 Z0.000
G0 Z5.000
G0 X4.950 Y118.000 Z5.000
G0 X4.950 Y118.000 Z0.000
G0 X5.450 Y118.000
G1 Z0.000 F1000.000
G3 X4.450 Y118.000 Z-0.200 I-0.500 J0.000 F200.000
G3 X5.450 Y118.000 Z-0.400 I0.500 J0.000 F200.000
G3 X4.450 Y118.000 Z-0.600 I-0.500 J0.000 F200.000
G3 X5.450 Y118.000 Z-0.800 I0.500 J0.000 F200.000
G3 X4.450 Y118.000 Z-1.000 I-0.500 J0.000 F200.000
G3 X5.450 Y118.000 Z-1.200 I0.500 J0.000 F200.000
G3 X4.450 Y118.000 Z-1.400 I-0.500 J0.000 F200.000
G3 X5.450 Y118.000 Z-1.600 I0.500 J0.000 F200.000
G3 X4.450 Y118.000 Z-1.800 I-0.500 J0.000 F200.000
G3 X5.450 Y118.000 Z-2.000 I0.500 J0.000 F200.000
G3 X4.450 Y118.000 Z-2.000 I-0.500 J0.000 F200.000
G3 X5.450 Y118.000 Z-2.000 I0.500 J0.000 F200.000
G0 X4.950 Y118.000 Z-2.000
G0 Z0.000
G0 X5.875 Y118.000
G1 Z0.000 F1000.000
G3 X4.025 Y118.000 Z-0.200 I-0.925 J0.000 F200.000
G3 X5.875 Y118.000 Z-0.400 I0.925 J0.000 F200.000
G3 X4.025 Y118.000 Z-0.600 I-0.925 J0.000 F200.000
G3 X5.875 Y118.000 Z-0.800 I0.925 J0.000 F200.000
G3 X4.025 Y118.000 Z-1.000 I-0.925 J0.000 F200.000
G3 X5.875 Y118.000 Z-1.200 I0.925 J0.000 F200.000
G3 X4.025 Y118.000 Z-1.400 I-0.925 J0.000 F200.000
G3 X5.875 Y118.000 Z-1.600 I0.925 J0.000 F200.000
G3 X4.025 Y118.000 Z-1.800 I-0.925 J0.000 F200.000
G3 X5.875 Y118.000 Z-2.000 I0.925 J0.000 F200.000
G3 X4.025 Y118.000 Z-2.000 I-0.925 J0.000 F200.000
G3 X5.875 Y118.000 Z-2.000 I0.925 J0.000 F200.000
G0 X4.950 Y118.000 Z-2.000
G0 Z0.000
G0 X6.300 Y118.000
G1 Z0.000 F1000.000
G3 X3.600 Y118.000 Z-0.200 I-1.350 J0.000 F200.000
G3 X6.300 Y118.000 Z-0.400 I1.350 J0.000 F200.000
G3 X3.600 Y118.000 Z-0.600 I-1.350 J0.000 F200.000
G3 X6.300 Y118.000 Z-0.800 I1.350 J0.000 F200.000
G3 X3.600 Y118.000 Z-1.000 I-1.350 J0.000 F200.000
G3 X6.300 Y118.000 Z-1.200 I1.350 J0.000 F200.000
G3 X3.600 Y118.000 Z-1.400 I-1.350 J0.000 F200.000
G3 X6.300 Y118.000 Z-1.600 I1.350 J0.000 F200.000
G3 X3.600 Y118.000 Z-1.800 I-1.350 J0.000 F200.000
G3 X6.300 Y118.000 Z-2.000 I1.350 J0.000 F200.000
G3 X3.600 Y118.000 Z-2.000 I-1.350 J0.000 F200.000
G3 X6.300 Y118.000 Z-2.000 I1.350 J0.000 F200.000
G0 X4.950 Y118.000 Z-2.000
G0 Z0.000
G0 Z5.000
(Finish operation: Counterbore-1mm-endmill)
(Begin postamble)
M5
G17 G90
M2
