(Exported by FreeCAD)
(Post Processor: grbl_post)
(Output Time:2025-12-24 09:21:50.445303)
(Begin preamble)
G17 G90
G21
(Begin operation: 1.0mm End Mill (PN 57)001)
(Path: 1.0mm End Mill (PN 57)001)
(1.0mm End Mill PN 57)001)
(Begin toolchange)
( M6 T4 )
(Finish operation: 1.0mm End Mill (PN 57)001)
(Begin operation: Fixture)
(Path: Fixture)
G54
(Finish operation: Fixture)
(Begin operation: Counterbore-1mm-endmill)
(Path: Counterbore-1mm-endmill)
(Counterbore-1mm-endmill)
(helix cut operation)
G0 Z4.000
G0 Z4.000
G0 X-3.950 Y11.750 Z4.000
G0 X-3.950 Y11.750 Z-1.000
G0 X-3.450 Y11.750
G1 Z-1.000
G3 X-4.450 Y11.750 Z-1.200 I-0.500 J0.000
G3 X-3.450 Y11.750 Z-1.400 I0.500 J0.000
G3 X-4.450 Y11.750 Z-1.600 I-0.500 J0.000
G3 X-3.450 Y11.750 Z-1.800 I0.500 J0.000
G3 X-4.450 Y11.750 Z-2.000 I-0.500 J0.000
G3 X-3.450 Y11.750 Z-2.200 I0.500 J0.000
G3 X-4.450 Y11.750 Z-2.400 I-0.500 J0.000
G3 X-3.450 Y11.750 Z-2.600 I0.500 J0.000
G3 X-4.450 Y11.750 Z-2.800 I-0.500 J0.000
G3 X-3.450 Y11.750 Z-3.000 I0.500 J0.000
G3 X-4.450 Y11.750 Z-3.000 I-0.500 J0.000
G3 X-3.450 Y11.750 Z-3.000 I0.500 J0.000
G0 X-3.950 Y11.750 Z-3.000
G0 Z-1.000
G0 X-3.025 Y11.750
G1 Z-1.000
G3 X-4.875 Y11.750 Z-1.200 I-0.925 J0.000
G3 X-3.025 Y11.750 Z-1.400 I0.925 J0.000
G3 X-4.875 Y11.750 Z-1.600 I-0.925 J0.000
G3 X-3.025 Y11.750 Z-1.800 I0.925 J0.000
G3 X-4.875 Y11.750 Z-2.000 I-0.925 J0.000
G3 X-3.025 Y11.750 Z-2.200 I0.925 J0.000
G3 X-4.875 Y11.750 Z-2.400 I-0.925 J0.000
G3 X-3.025 Y11.750 Z-2.600 I0.925 J0.000
G3 X-4.875 Y11.750 Z-2.800 I-0.925 J0.000
G3 X-3.025 Y11.750 Z-3.000 I0.925 J0.000
G3 X-4.875 Y11.750 Z-3.000 I-0.925 J0.000
G3 X-3.025 Y11.750 Z-3.000 I0.925 J0.000
G0 X-3.950 Y11.750 Z-3.000
G0 Z-1.000
G0 X-2.600 Y11.750
G1 Z-1.000
G3 X-5.300 Y11.750 Z-1.200 I-1.350 J0.000
G3 X-2.600 Y11.750 Z-1.400 I1.350 J0.000
G3 X-5.300 Y11.750 Z-1.600 I-1.350 J0.000
G3 X-2.600 Y11.750 Z-1.800 I1.350 J0.000
G3 X-5.300 Y11.750 Z-2.000 I-1.350 J0.000
G3 X-2.600 Y11.750 Z-2.200 I1.350 J0.000
G3 X-5.300 Y11.750 Z-2.400 I-1.350 J0.000
G3 X-2.600 Y11.750 Z-2.600 I1.350 J0.000
G3 X-5.300 Y11.750 Z-2.800 I-1.350 J0.000
G3 X-2.600 Y11.750 Z-3.000 I1.350 J0.000
G3 X-5.300 Y11.750 Z-3.000 I-1.350 J0.000
G3 X-2.600 Y11.750 Z-3.000 I1.350 J0.000
G0 X-3.950 Y11.750 Z-3.000
G0 Z-1.000
G0 Z4.000
G0 X-11.750 Y3.950 Z4.000
G0 X-11.750 Y3.950 Z-1.000
G0 X-11.250 Y3.950
G1 Z-1.000
G3 X-12.250 Y3.950 Z-1.200 I-0.500 J0.000
G3 X-11.250 Y3.950 Z-1.400 I0.500 J0.000
G3 X-12.250 Y3.950 Z-1.600 I-0.500 J0.000
G3 X-11.250 Y3.950 Z-1.800 I0.500 J0.000
G3 X-12.250 Y3.950 Z-2.000 I-0.500 J0.000
G3 X-11.250 Y3.950 Z-2.200 I0.500 J0.000
G3 X-12.250 Y3.950 Z-2.400 I-0.500 J0.000
G3 X-11.250 Y3.950 Z-2.600 I0.500 J0.000
G3 X-12.250 Y3.950 Z-2.800 I-0.500 J0.000
G3 X-11.250 Y3.950 Z-3.000 I0.500 J0.000
G3 X-12.250 Y3.950 Z-3.000 I-0.500 J0.000
G3 X-11.250 Y3.950 Z-3.000 I0.500 J0.000
G0 X-11.750 Y3.950 Z-3.000
G0 Z-1.000
G0 X-10.825 Y3.950
G1 Z-1.000
G3 X-12.675 Y3.950 Z-1.200 I-0.925 J0.000
G3 X-10.825 Y3.950 Z-1.400 I0.925 J0.000
G3 X-12.675 Y3.950 Z-1.600 I-0.925 J0.000
G3 X-10.825 Y3.950 Z-1.800 I0.925 J0.000
G3 X-12.675 Y3.950 Z-2.000 I-0.925 J0.000
G3 X-10.825 Y3.950 Z-2.200 I0.925 J0.000
G3 X-12.675 Y3.950 Z-2.400 I-0.925 J0.000
G3 X-10.825 Y3.950 Z-2.600 I0.925 J0.000
G3 X-12.675 Y3.950 Z-2.800 I-0.925 J0.000
G3 X-10.825 Y3.950 Z-3.000 I0.925 J0.000
G3 X-12.675 Y3.950 Z-3.000 I-0.925 J0.000
G3 X-10.825 Y3.950 Z-3.000 I0.925 J0.000
G0 X-11.750 Y3.950 Z-3.000
G0 Z-1.000
G0 X-10.400 Y3.950
G1 Z-1.000
G3 X-13.100 Y3.950 Z-1.200 I-1.350 J0.000
G3 X-10.400 Y3.950 Z-1.400 I1.350 J0.000
G3 X-13.100 Y3.950 Z-1.600 I-1.350 J0.000
G3 X-10.400 Y3.950 Z-1.800 I1.350 J0.000
G3 X-13.100 Y3.950 Z-2.000 I-1.350 J0.000
G3 X-10.400 Y3.950 Z-2.200 I1.350 J0.000
G3 X-13.100 Y3.950 Z-2.400 I-1.350 J0.000
G3 X-10.400 Y3.950 Z-2.600 I1.350 J0.000
G3 X-13.100 Y3.950 Z-2.800 I-1.350 J0.000
G3 X-10.400 Y3.950 Z-3.000 I1.350 J0.000
G3 X-13.100 Y3.950 Z-3.000 I-1.350 J0.000
G3 X-10.400 Y3.950 Z-3.000 I1.350 J0.000
G0 X-11.750 Y3.950 Z-3.000
G0 Z-1.000
G0 Z4.000
G0 X-117.000 Y3.950 Z4.000
G0 X-117.000 Y3.950 Z-1.000
G0 X-116.500 Y3.950
G1 Z-1.000
G3 X-117.500 Y3.950 Z-1.200 I-0.500 J0.000
G3 X-116.500 Y3.950 Z-1.400 I0.500 J0.000
G3 X-117.500 Y3.950 Z-1.600 I-0.500 J0.000
G3 X-116.500 Y3.950 Z-1.800 I0.500 J0.000
G3 X-117.500 Y3.950 Z-2.000 I-0.500 J0.000
G3 X-116.500 Y3.950 Z-2.200 I0.500 J0.000
G3 X-117.500 Y3.950 Z-2.400 I-0.500 J0.000
G3 X-116.500 Y3.950 Z-2.600 I0.500 J0.000
G3 X-117.500 Y3.950 Z-2.800 I-0.500 J0.000
G3 X-116.500 Y3.950 Z-3.000 I0.500 J0.000
G3 X-117.500 Y3.950 Z-3.000 I-0.500 J0.000
G3 X-116.500 Y3.950 Z-3.000 I0.500 J0.000
G0 X-117.000 Y3.950 Z-3.000
G0 Z-1.000
G0 X-116.075 Y3.950
G1 Z-1.000
G3 X-117.925 Y3.950 Z-1.200 I-0.925 J0.000
G3 X-116.075 Y3.950 Z-1.400 I0.925 J0.000
G3 X-117.925 Y3.950 Z-1.600 I-0.925 J0.000
G3 X-116.075 Y3.950 Z-1.800 I0.925 J0.000
G3 X-117.925 Y3.950 Z-2.000 I-0.925 J0.000
G3 X-116.075 Y3.950 Z-2.200 I0.925 J0.000
G3 X-117.925 Y3.950 Z-2.400 I-0.925 J0.000
G3 X-116.075 Y3.950 Z-2.600 I0.925 J0.000
G3 X-117.925 Y3.950 Z-2.800 I-0.925 J0.000
G3 X-116.075 Y3.950 Z-3.000 I0.925 J0.000
G3 X-117.925 Y3.950 Z-3.000 I-0.925 J0.000
G3 X-116.075 Y3.950 Z-3.000 I0.925 J0.000
G0 X-117.000 Y3.950 Z-3.000
G0 Z-1.000
G0 X-115.650 Y3.950
G1 Z-1.000
G3 X-118.350 Y3.950 Z-1.200 I-1.350 J0.000
G3 X-115.650 Y3.950 Z-1.400 I1.350 J0.000
G3 X-118.350 Y3.950 Z-1.600 I-1.350 J0.000
G3 X-115.650 Y3.950 Z-1.800 I1.350 J0.000
G3 X-118.350 Y3.950 Z-2.000 I-1.350 J0.000
G3 X-115.650 Y3.950 Z-2.200 I1.350 J0.000
G3 X-118.350 Y3.950 Z-2.400 I-1.350 J0.000
G3 X-115.650 Y3.950 Z-2.600 I1.350 J0.000
G3 X-118.350 Y3.950 Z-2.800 I-1.350 J0.000
G3 X-115.650 Y3.950 Z-3.000 I1.350 J0.000
G3 X-118.350 Y3.950 Z-3.000 I-1.350 J0.000
G3 X-115.650 Y3.950 Z-3.000 I1.350 J0.000
G0 X-117.000 Y3.950 Z-3.000
G0 Z-1.000
G0 Z4.000
G0 X-3.950 Y117.000 Z4.000
G0 X-3.950 Y117.000 Z-1.000
G0 X-3.450 Y117.000
G1 Z-1.000
G3 X-4.450 Y117.000 Z-1.200 I-0.500 J0.000
G3 X-3.450 Y117.000 Z-1.400 I0.500 J0.000
G3 X-4.450 Y117.000 Z-1.600 I-0.500 J0.000
G3 X-3.450 Y117.000 Z-1.800 I0.500 J0.000
G3 X-4.450 Y117.000 Z-2.000 I-0.500 J0.000
G3 X-3.450 Y117.000 Z-2.200 I0.500 J0.000
G3 X-4.450 Y117.000 Z-2.400 I-0.500 J0.000
G3 X-3.450 Y117.000 Z-2.600 I0.500 J0.000
G3 X-4.450 Y117.000 Z-2.800 I-0.500 J0.000
G3 X-3.450 Y117.000 Z-3.000 I0.500 J0.000
G3 X-4.450 Y117.000 Z-3.000 I-0.500 J0.000
G3 X-3.450 Y117.000 Z-3.000 I0.500 J0.000
G0 X-3.950 Y117.000 Z-3.000
G0 Z-1.000
G0 X-3.025 Y117.000
G1 Z-1.000
G3 X-4.875 Y117.000 Z-1.200 I-0.925 J0.000
G3 X-3.025 Y117.000 Z-1.400 I0.925 J0.000
G3 X-4.875 Y117.000 Z-1.600 I-0.925 J0.000
G3 X-3.025 Y117.000 Z-1.800 I0.925 J0.000
G3 X-4.875 Y117.000 Z-2.000 I-0.925 J0.000
G3 X-3.025 Y117.000 Z-2.200 I0.925 J0.000
G3 X-4.875 Y117.000 Z-2.400 I-0.925 J0.000
G3 X-3.025 Y117.000 Z-2.600 I0.925 J0.000
G3 X-4.875 Y117.000 Z-2.800 I-0.925 J0.000
G3 X-3.025 Y117.000 Z-3.000 I0.925 J0.000
G3 X-4.875 Y117.000 Z-3.000 I-0.925 J0.000
G3 X-3.025 Y117.000 Z-3.000 I0.925 J0.000
G0 X-3.950 Y117.000 Z-3.000
G0 Z-1.000
G0 X-2.600 Y117.000
G1 Z-1.000
G3 X-5.300 Y117.000 Z-1.200 I-1.350 J0.000
G3 X-2.600 Y117.000 Z-1.400 I1.350 J0.000
G3 X-5.300 Y117.000 Z-1.600 I-1.350 J0.000
G3 X-2.600 Y117.000 Z-1.800 I1.350 J0.000
G3 X-5.300 Y117.000 Z-2.000 I-1.350 J0.000
G3 X-2.600 Y117.000 Z-2.200 I1.350 J0.000
G3 X-5.300 Y117.000 Z-2.400 I-1.350 J0.000
G3 X-2.600 Y117.000 Z-2.600 I1.350 J0.000
G3 X-5.300 Y117.000 Z-2.800 I-1.350 J0.000
G3 X-2.600 Y117.000 Z-3.000 I1.350 J0.000
G3 X-5.300 Y117.000 Z-3.000 I-1.350 J0.000
G3 X-2.600 Y117.000 Z-3.000 I1.350 J0.000
G0 X-3.950 Y117.000 Z-3.000
G0 Z-1.000
G0 Z4.000
(Finish operation: Counterbore-1mm-endmill)
(Begin postamble)
M5
G17 G90
M2
