(Exported by FreeCAD)
(Post Processor: grbl_post)
(Output Time:2025-12-24 09:21:49.166545)
(Begin preamble)
G17 G90
G21
(Begin operation: 2mm-drill003)
(Path: 2mm-drill003)
(2mm-drill003)
(Begin toolchange)
( M6 T2 )
(Finish operation: 2mm-drill003)
(Begin operation: Fixture)
(Path: Fixture)
G54
(Finish operation: Fixture)
(Begin operation: Drilling-2mm-drill)
(Path: Drilling-2mm-drill)
(Drilling-2mm-drill)
(Begin Drilling)
G90
G0 Z4.000
( G98 )
G0 X-3.950 Y11.750
G0 Z2.000
(G83 X-3.950 Y11.750 Z-19.884 Q2.250 R2.000)
G0 X-3.950 Y11.750
G1 Z-0.250 F0.00
G0 Z2.000
G0 Z-0.138
G1 Z-2.500 F0.00
G0 Z2.000
G0 Z-2.388
G1 Z-4.750 F0.00
G0 Z2.000
G0 Z-4.638
G1 Z-7.000 F0.00
G0 Z2.000
G0 Z-6.888
G1 Z-9.250 F0.00
G0 Z2.000
G0 Z-9.137
G1 Z-11.500 F0.00
G0 Z2.000
G0 Z-11.387
G1 Z-13.750 F0.00
G0 Z2.000
G0 Z-13.637
G1 Z-16.000 F0.00
G0 Z2.000
G0 Z-15.887
G1 Z-18.250 F0.00
G0 Z2.000
G0 Z-18.137
G1 Z-19.884 F0.00
G0 Z2.000
G0 X-11.750 Y3.950
(G83 X-11.750 Y3.950 Z-19.884 Q2.250 R2.000)
G0 X-11.750 Y3.950
G1 Z-0.250 F0.00
G0 Z2.000
G0 Z-0.138
G1 Z-2.500 F0.00
G0 Z2.000
G0 Z-2.388
G1 Z-4.750 F0.00
G0 Z2.000
G0 Z-4.638
G1 Z-7.000 F0.00
G0 Z2.000
G0 Z-6.888
G1 Z-9.250 F0.00
G0 Z2.000
G0 Z-9.137
G1 Z-11.500 F0.00
G0 Z2.000
G0 Z-11.387
G1 Z-13.750 F0.00
G0 Z2.000
G0 Z-13.637
G1 Z-16.000 F0.00
G0 Z2.000
G0 Z-15.887
G1 Z-18.250 F0.00
G0 Z2.000
G0 Z-18.137
G1 Z-19.884 F0.00
G0 Z2.000
G0 X-117.000 Y3.950
(G83 X-117.000 Y3.950 Z-19.884 Q2.250 R2.000)
G0 X-117.000 Y3.950
G1 Z-0.250 F0.00
G0 Z2.000
G0 Z-0.138
G1 Z-2.500 F0.00
G0 Z2.000
G0 Z-2.388
G1 Z-4.750 F0.00
G0 Z2.000
G0 Z-4.638
G1 Z-7.000 F0.00
G0 Z2.000
G0 Z-6.888
G1 Z-9.250 F0.00
G0 Z2.000
G0 Z-9.137
G1 Z-11.500 F0.00
G0 Z2.000
G0 Z-11.387
G1 Z-13.750 F0.00
G0 Z2.000
G0 Z-13.637
G1 Z-16.000 F0.00
G0 Z2.000
G0 Z-15.887
G1 Z-18.250 F0.00
G0 Z2.000
G0 Z-18.137
G1 Z-19.884 F0.00
G0 Z2.000
G0 X-3.950 Y117.000
(G83 X-3.950 Y117.000 Z-19.884 Q2.250 R2.000)
G0 X-3.950 Y117.000
G1 Z-0.250 F0.00
G0 Z2.000
G0 Z-0.138
G1 Z-2.500 F0.00
G0 Z2.000
G0 Z-2.388
G1 Z-4.750 F0.00
G0 Z2.000
G0 Z-4.638
G1 Z-7.000 F0.00
G0 Z2.000
G0 Z-6.888
G1 Z-9.250 F0.00
G0 Z2.000
G0 Z-9.137
G1 Z-11.500 F0.00
G0 Z2.000
G0 Z-11.387
G1 Z-13.750 F0.00
G0 Z2.000
G0 Z-13.637
G1 Z-16.000 F0.00
G0 Z2.000
G0 Z-15.887
G1 Z-18.250 F0.00
G0 Z2.000
G0 Z-18.137
G1 Z-19.884 F0.00
G0 Z2.000
( G80 )
G0 Z4.000
(Finish operation: Drilling-2mm-drill)
(Begin postamble)
M5
G17 G90
M2
